favicon.svg

<svg width="32" height="32" viewBox="0 0 32 32" fill="none" xmlns="http://www.w3.org/2000/svg">
<g clip-path="url(#clip0_145_74)">
<path d="M16 32C24.8366 32 32 24.8366 32 16C32 7.16344 24.8366 0 16 0C7.16344 0 0 7.16344 0 16C0 24.8366 7.16344 32 16 32Z" fill="#202020"/>
<path d="M23.583 12.833H22.695L20.853 7.76301C20.7006 7.34503 20.4237 6.98384 20.0597 6.72814C19.6956 6.47244 19.2619 6.33453 18.817 6.33301H17.083C16.488 6.33301 16 6.82101 16 7.41701C16 8.01201 16.488 8.50001 17.083 8.50001H18.817L20.398 12.833H15.188L14.798 11.75H14.895C15.491 11.75 15.978 11.262 15.978 10.667C15.978 10.071 15.491 9.58301 14.895 9.58301H11.667C11.071 9.58301 10.583 10.071 10.583 10.667C10.583 11.262 11.071 11.75 11.667 11.75H12.479L14.451 17.167H13.725C13.248 14.751 11.223 12.963 8.688 12.844C5.654 12.693 3 15.217 3 18.25C3 21.283 5.383 23.667 8.417 23.667C11.082 23.667 13.237 21.836 13.725 19.333H18.275C18.752 21.749 20.778 23.537 23.313 23.656C26.346 23.796 29 21.283 29 18.239C29 15.217 26.617 12.833 23.583 12.833ZM9.5 19.333H11.472C11.017 20.666 9.738 21.587 8.2 21.489C6.586 21.392 5.243 20.027 5.167 18.402C5.09 16.506 6.543 15 8.417 15C9.857 15 11.038 15.9 11.472 17.167H9.5C8.904 17.167 8.417 17.654 8.417 18.25C8.417 18.846 8.904 19.333 9.5 19.333ZM18.275 17.167H16.758L15.968 15H19.25C18.7598 15.636 18.4258 16.3783 18.275 17.167ZM23.453 21.5C21.785 21.435 20.377 20.016 20.333 18.337C20.3188 17.8527 20.4138 17.3715 20.6108 16.9289C20.8077 16.4863 21.1017 16.0936 21.471 15.78L22.142 17.622C22.19 17.756 22.2641 17.8792 22.3599 17.9845C22.4557 18.0897 22.5714 18.175 22.7003 18.2354C22.8292 18.2958 22.9688 18.3302 23.111 18.3365C23.2532 18.3427 23.3953 18.3208 23.529 18.272C23.663 18.224 23.7862 18.1499 23.8915 18.0541C23.9967 17.9583 24.082 17.8426 24.1424 17.7137C24.2028 17.5848 24.2372 17.4452 24.2434 17.303C24.2497 17.1608 24.2278 17.0187 24.179 16.885L23.497 15.011L23.507 15C23.9414 14.985 24.3744 15.0582 24.7797 15.2152C25.185 15.3722 25.5542 15.6098 25.8651 15.9136C26.176 16.2174 26.4221 16.5811 26.5884 16.9827C26.7548 17.3842 26.838 17.8154 26.833 18.25C26.833 20.113 25.338 21.565 23.453 21.5Z" fill="url(#paint0_linear_145_74)"/>
</g>
<defs>
<linearGradient id="paint0_linear_145_74" x1="16" y1="6.33301" x2="16" y2="23.667" gradientUnits="userSpaceOnUse">
<stop stop-color="#AC62CB"/>
<stop offset="1" stop-color="#75268B"/>
</linearGradient>
<clipPath id="clip0_145_74">
<rect width="32" height="32" fill="white"/>
</clipPath>
</defs>
</svg>

<svg width="32" height="32" fill="none" xmlns="http://www.w3.org/2000/svg"><circle cx="16" cy="16" r="16" fill="#fff"/><path d="M23.583 12.833h-.888l-1.842-5.07a2.175 2.175 0 0 0-2.036-1.43h-1.734c-.595 0-1.083.488-1.083 1.084 0 .595.488 1.083 1.083 1.083h1.734l1.581 4.333h-5.21l-.39-1.083h.097c.596 0 1.083-.488 1.083-1.083 0-.596-.487-1.084-1.083-1.084h-3.228c-.596 0-1.084.488-1.084 1.084 0 .595.488 1.083 1.084 1.083h.812l1.972 5.417h-.726c-.477-2.416-2.502-4.204-5.037-4.323C5.654 12.693 3 15.217 3 18.25c0 3.033 2.383 5.417 5.417 5.417 2.665 0 4.82-1.831 5.308-4.334h4.55c.477 2.416 2.503 4.204 5.038 4.323 3.033.14 5.687-2.373 5.687-5.417 0-3.022-2.383-5.406-5.417-5.406ZM9.5 19.333h1.972c-.455 1.333-1.734 2.254-3.272 2.156-1.614-.097-2.957-1.462-3.033-3.087C5.09 16.506 6.543 15 8.417 15c1.44 0 2.621.9 3.055 2.167H9.5c-.596 0-1.083.487-1.083 1.083s.487 1.083 1.083 1.083Zm8.775-2.166h-1.517L15.968 15h3.282a5.128 5.128 0 0 0-.975 2.167Zm5.178 4.333c-1.668-.065-3.076-1.484-3.12-3.163a3.231 3.231 0 0 1 1.138-2.557l.671 1.842a1.08 1.08 0 0 0 1.387.65 1.08 1.08 0 0 0 .65-1.387l-.682-1.874.01-.011a3.215 3.215 0 0 1 3.326 3.25c0 1.863-1.495 3.315-3.38 3.25Z" fill="url(#a)"/><defs><linearGradient id="a" x1="16" y1="6.333" x2="16" y2="23.667" gradientUnits="userSpaceOnUse"><stop stop-color="#FFB60D"/><stop offset="1" stop-color="#E59317"/></linearGradient></defs></svg>
